assets/images/icon-plan.svg

<svg height="94" viewBox="0 0 94 94" width="94" xmlns="http://www.w3.org/2000/svg"><g fill="#fff" fill-rule="evenodd"><path d="m31.375 22h20.312v3.125h-20.312z"/><path d="m54.812 22h7.8125v3.125h-7.8125z"/><path d="m86.062.125h-3.125c-.86328 0-1.5625.69922-1.5625 1.5625v10.938h-79.688c-.86328 0-1.5625.69922-1.5625 1.5625v65.625c0 .41406.16406.8125.45703 1.1055s.69141.45703 1.1055.45703h84.375c4.3125-.003906 7.8086-3.5 7.8125-7.8125v-65.625c-.003906-4.3125-3.5-7.8086-7.8125-7.8125zm0 78.125h-82.812v-62.5h78.125v51.562c0 .41406.16406.8125.45703 1.1055s.69141.45703 1.1055.45703h3.125c2.5898 0 4.6875 2.0977 4.6875 4.6875s-2.0977 4.6875-4.6875 4.6875zm4.6875-10.938c-1.3516-1.0156-2.9961-1.5664-4.6875-1.5625h-1.5625v-62.5h1.5625c2.5898 0 4.6875 2.0977 4.6875 4.6875z" fill-rule="nonzero"/><path d="m76.688 50.125h-7.8125v-4.6875c0-.41406-.16406-.8125-.45703-1.1055s-.69141-.45703-1.1055-.45703h-18.75v-3.125h7.8125c.41406 0 .8125-.16406 1.1055-.45703s.45703-.69141.45703-1.1055v-9.375c0-.41406-.16406-.8125-.45703-1.1055s-.69141-.45703-1.1055-.45703h-18.75c-.86328 0-1.5625.69922-1.5625 1.5625v9.375c0 .41406.16406.8125.45703 1.1055s.69141.45703 1.1055.45703h7.8125v3.125h-18.75c-.86328 0-1.5625.69922-1.5625 1.5625v4.6875h-7.8125c-.86328 0-1.5625.69922-1.5625 1.5625v9.375c0 .41406.16406.8125.45703 1.1055s.69141.45703 1.1055.45703h18.75c.41406 0 .8125-.16406 1.1055-.45703s.45703-.69141.45703-1.1055v-9.375c0-.41406-.16406-.8125-.45703-1.1055s-.69141-.45703-1.1055-.45703h-7.8125v-3.125h37.5v3.125h-7.8125c-.86328 0-1.5625.69922-1.5625 1.5625v9.375c0 .41406.16406.8125.45703 1.1055s.69141.45703 1.1055.45703h18.75c.41406 0 .8125-.16406 1.1055-.45703s.45703-.69141.45703-1.1055v-9.375c0-.41406-.16406-.8125-.45703-1.1055s-.69141-.45703-1.1055-.45703zm-42.188 3.125v6.25h-15.625v-6.25zm4.6875-15.625v-6.25h15.625v6.25zm35.938 21.875h-15.625v-6.25h15.625z" fill-rule="nonzero"/><path d="m15.75 65.75h6.25v3.125h-6.25z"/><path d="m25.125 65.75h12.5v3.125h-12.5z"/><path d="m78.25 86.062c0-.41406-.16406-.8125-.45703-1.1055s-.69141-.45703-1.1055-.45703h-35.938c-.30859 0-.60938.089844-.86719.26172l-4.6875 3.125c-.43359.28906-.69531.77734-.69531 1.3008s.26172 1.0117.69531 1.3008l4.6875 3.125c.25781.17188.55859.26172.86719.26172h35.938c.41406 0 .8125-.16406 1.1055-.45703s.45703-.69141.45703-1.1055zm-9.375 4.6875h-27.656l-2.3438-1.5625 2.3438-1.5625h27.656zm6.25 0h-3.125v-3.125h3.125z" fill-rule="nonzero"/><path d="m56.375 65.75h12.5v3.125h-12.5z"/><path d="m72 65.75h6.25v3.125h-6.25z"/></g></svg>

<?xml version="1.0" encoding="UTF-8"?>
<svg width="94px" height="94px" viewBox="0 0 94 94" version="1.1" xmlns="http://www.w3.org/2000/svg" xmlns:xlink="http://www.w3.org/1999/xlink">
    <!-- Generator: Sketch 52.6 (67491) - http://www.bohemiancoding.com/sketch -->
    <title>np_planning_1935444_000000</title>
    <desc>Created with Sketch.</desc>
    <g id="Page-1" stroke="none" stroke-width="1" fill="none" fill-rule="evenodd">
        <g id="np_planning_1935444_000000" fill="#FFFFFF">
            <polygon id="Path" points="31.375 22 51.687 22 51.687 25.125 31.375 25.125"></polygon>
            <polygon id="Path" points="54.812 22 62.6245 22 62.6245 25.125 54.812 25.125"></polygon>
            <path d="M86.062,0.125 L82.937,0.125 C82.07372,0.125 81.3745,0.82422 81.3745,1.6875 L81.3745,12.6255 L1.6865,12.6255 C0.82322,12.6255 0.124,13.32472 0.124,14.188 L0.124,79.813 C0.124,80.22706 0.28806,80.6255 0.58103,80.9185 C0.874,81.2115 1.27244,81.37553 1.68653,81.37553 L86.06153,81.37553 C90.37403,81.371624 93.87013,77.87553 93.87403,73.56303 L93.87403,7.93803 C93.870124,3.62553 90.37403,0.12943 86.06153,0.12553 L86.062,0.125 Z M86.062,78.25 L3.25,78.25 L3.25,15.75 L81.375,15.75 L81.375,67.312 C81.375,67.72606 81.53906,68.1245 81.83203,68.4175 C82.125,68.7105 82.52344,68.87453 82.93753,68.87453 L86.06253,68.87453 C88.65233,68.87453 90.75003,70.97223 90.75003,73.56203 C90.75003,76.15183 88.65233,78.24953 86.06253,78.24953 L86.062,78.25 Z M90.7495,67.312 C89.3979,66.2964 87.7534,65.7456 86.062,65.7495 L84.4995,65.7495 L84.4995,3.2495 L86.062,3.2495 C88.6518,3.2495 90.7495,5.3472 90.7495,7.937 L90.7495,67.312 Z" id="Shape" fill-rule="nonzero"></path>
            <path d="M76.688,50.125 L68.8755,50.125 L68.8755,45.4375 C68.8755,45.02344 68.71144,44.625 68.41847,44.332 C68.1255,44.039 67.72706,43.87497 67.31297,43.87497 L48.56297,43.87497 L48.56297,40.74997 L56.37547,40.74997 C56.78953,40.74997 57.18797,40.58591 57.48097,40.29294 C57.77397,39.99997 57.938,39.60153 57.938,39.18744 L57.938,29.81244 C57.938,29.39838 57.77394,28.99994 57.48097,28.70694 C57.188,28.41394 56.78956,28.24991 56.37547,28.24991 L37.62547,28.24991 C36.76219,28.24991 36.06297,28.94913 36.06297,29.81241 L36.06297,39.18741 C36.06297,39.60147 36.22703,39.99991 36.52,40.29291 C36.81297,40.58591 37.21141,40.74994 37.6255,40.74994 L45.438,40.74994 L45.438,43.87494 L26.688,43.87494 C25.82472,43.87494 25.1255,44.57416 25.1255,45.43744 L25.1255,50.12494 L17.313,50.12494 C16.44972,50.12494 15.7505,50.82416 15.7505,51.68744 L15.7505,61.06244 C15.7505,61.4765 15.91456,61.87494 16.20753,62.16794 C16.5005,62.46094 16.89894,62.62497 17.31303,62.62497 L36.06303,62.62497 C36.47709,62.62497 36.87553,62.46091 37.16853,62.16794 C37.46153,61.87497 37.62556,61.47653 37.62556,61.06244 L37.62556,51.68744 C37.62556,51.27338 37.4615,50.87494 37.16853,50.58194 C36.87556,50.28894 36.47712,50.12491 36.06303,50.12491 L28.25053,50.12491 L28.25053,46.99991 L65.75053,46.99991 L65.75053,50.12491 L57.93803,50.12491 C57.07475,50.12491 56.37553,50.82413 56.37553,51.68741 L56.37553,61.06241 C56.37553,61.47647 56.53959,61.87491 56.83256,62.16791 C57.12553,62.46091 57.52397,62.62494 57.93806,62.62494 L76.68806,62.62494 C77.10212,62.62494 77.50056,62.46088 77.79356,62.16791 C78.08656,61.87494 78.25059,61.4765 78.25059,61.06241 L78.25059,51.68741 C78.25059,51.27335 78.08653,50.87491 77.79356,50.58191 C77.50059,50.28891 77.10215,50.12488 76.68806,50.12488 L76.688,50.125 Z M34.5,53.25 L34.5,59.5 L18.875,59.5 L18.875,53.25 L34.5,53.25 Z M39.1875,37.625 L39.1875,31.375 L54.8125,31.375 L54.8125,37.625 L39.1875,37.625 Z M75.1255,59.5 L59.5005,59.5 L59.5005,53.25 L75.1255,53.25 L75.1255,59.5 Z" id="Shape" fill-rule="nonzero"></path>
            <polygon id="Path" points="15.75 65.75 22 65.75 22 68.875 15.75 68.875"></polygon>
            <polygon id="Path" points="25.125 65.75 37.625 65.75 37.625 68.875 25.125 68.875"></polygon>
            <path d="M78.25,86.062 C78.25,85.64794 78.08594,85.2495 77.79297,84.9565 C77.5,84.6635 77.10156,84.49947 76.68747,84.49947 L40.74947,84.49947 C40.44088,84.49947 40.14009,84.589314 39.88228,84.76119 L35.19478,87.88619 C34.76119,88.17525 34.49947,88.66353 34.49947,89.18699 C34.49947,89.71045 34.76119,90.19869 35.19478,90.48779 L39.88228,93.61279 C40.14009,93.78467 40.44087,93.87451 40.74947,93.87451 L76.68747,93.87451 C77.10153,93.87451 77.49997,93.71045 77.79297,93.41748 C78.08597,93.12451 78.25,92.72607 78.25,92.31198 L78.25,86.062 Z M68.875,90.7495 L41.219,90.7495 L38.8752,89.187 L41.219,87.6245 L68.875,87.6245 L68.875,90.7495 Z M75.125,90.7495 L72,90.7495 L72,87.6245 L75.125,87.6245 L75.125,90.7495 Z" id="Shape" fill-rule="nonzero"></path>
            <polygon id="Path" points="56.375 65.75 68.875 65.75 68.875 68.875 56.375 68.875"></polygon>
            <polygon id="Path" points="72 65.75 78.25 65.75 78.25 68.875 72 68.875"></polygon>
        </g>
    </g>
</svg>
